src/icons/svg/mcp.svg

<svg width="156" height="174" viewBox="0 0 156 174" fill="none" xmlns="http://www.w3.org/2000/svg">
<path d="M6 81.8531L73.8823 13.9709C83.255 4.59826 98.451 4.59826 107.823 13.9709C117.196 23.3434 117.196 38.5394 107.823 47.912L56.5581 99.1773" stroke="black" stroke-width="12" stroke-linecap="round"/>
<path d="M57.2656 98.4706L107.823 47.9123C117.196 38.5397 132.392 38.5397 141.765 47.9123L142.118 48.2658C151.491 57.6384 151.491 72.8344 142.118 82.2069L80.7251 143.601C77.6009 146.725 77.6009 151.79 80.7251 154.914L93.3313 167.521" stroke="black" stroke-width="12" stroke-linecap="round"/>
<path d="M90.8533 30.9414L40.6485 81.146C31.276 90.5183 31.276 105.714 40.6485 115.087C50.0211 124.459 65.2171 124.459 74.5897 115.087L124.794 64.8825" stroke="black" stroke-width="12" stroke-linecap="round"/>
</svg>

<svg xmlns="http://www.w3.org/2000/svg" width="156" height="174" fill="none"><path stroke="#000" stroke-linecap="round" stroke-width="12" d="m6 81.853 67.882-67.882c9.373-9.373 24.569-9.373 33.941 0s9.373 24.568 0 33.941L56.558 99.177m.708-.707 50.557-50.558c9.373-9.372 24.569-9.372 33.942 0l.353.354c9.373 9.372 9.373 24.568 0 33.94l-61.393 61.395a8 8 0 0 0 0 11.313l12.606 12.607"/><path stroke="#000" stroke-linecap="round" stroke-width="12" d="M90.853 30.941 40.65 81.146c-9.373 9.372-9.373 24.568 0 33.941 9.372 9.372 24.568 9.372 33.94 0l50.205-50.205"/></svg>
